**kern	**kern
*staff1	*staff2
*clefG2	*clefG2
*k[b-]	*k[b-]
*M2/4	*M2/4
*F:	*F:
*^	*
8r	8c'	8AA'
=109	=109	=109
2r	(16ALL	(16FFLL
.	32B-L	32GGL
.	32cJJ	32AAJJ
.	32dLL	32BB-LL
.	32e	32C
.	32f	32D
.	32gJJJ)	32EJJJ)
.	8a'L	8F'L
.	8cc'J	8A'J
=110	=110	=110
8r	(4b-	(8GL
4gg	.	8EJ
.	4a	8FL
[8ff	.	8BBJ)
=111	=111	=111
16ffLK]	8gL	8C'L
8ee	.	.
.	8fJ	8CC'J
[16ddJk	.	.
16ddLK]	8eL	8CC'L
8cc	.	.
.	8fJ)	8CC'J
[16ddJk	.	.
=112	=112	=112
8ddL]	(4f#	4.CC
8dd#J	.	.
8ee	8g)	.
8r	8c'	8AA'
=113	=113	=113
2r	(16ALL	(16FFLL
.	32B-L	32GGL
.	32cJJ	32AAJJ
.	32dLL	32BB-LL
.	32e	32C
.	32f	32D
.	32gJJJ)	32EJJJ)
.	8a'L	8F'L
.	8cc'J	8A'J
=114	=114	=114
8r	4b-	(8GL
4gg	.	8EJ
.	4a	8FL
[8ff	.	8BBJ)
=115	=115	=115
16ffLK]	8gL	(8CL
8ee	.	.
.	(8gJ	8CCJ
[16eeJk	.	.
16eeLK]	8aL	8GGL
8ff	.	.
.	8bJ)	8GGGJ)
16ddJk	.	.
*v	*v	*
=116	=116
4cc	(16CCLL
.	32DDL
.	32EEJJ
.	32FFLL
.	32GG
.	32AA
.	32BBJJJ)
4r	8C'L
.	8E'J
=117	=117
(16ggLL	4.GG 4.G
32ffL	.
32eeJJ	.
32ddLL	.
32cc	.
32b	.
32aJJJ)	.
8g'L	.
8f'J 8b'	8GG' 8G'
=118	=118
8e 8cc	(16CLL
.	32DL
.	32EJJ
8r	32FLL
.	32G
.	32A
.	32BJJJ)
4r	8c'L
.	8e'J
=119	=119
(16ggLL	4.G 4.g
32ffL	.
32eeJJ	.
32ddLL	.
32cc	.
32b	.
32aJJJ)	.
8g'L	.
8b'J	8G 8f
=120	=120
4.cc;	4.c; 4.e;
*-	*-
